X:0050
M:6/8
L:1/8
Q:3/8=120
K:G
e|def g2e|fed edB|def g2e|afd e2f|def g2e|f2d efg|
  dBG GAB|ded dBG|BAB AFD|EFE E2

